X:64
T:Karen's Coming!
M:C|
L:1/8
C:© Paul Gitlitz 2002
R:Reel
B:Hunters and Gatherers
D:"To Have and To Hold" available @ www.glitchless.net
K:A
"A(6)"e2a2"(Bbdim)"f4|"(Bm7)"[c2e2]"(E7)"[e2e2] cBA2|"(A6)"e2a2"(C#m7)"f3e|"(Bm7)"cABc "E7"B4|!
"A(6)"e2a2"(A6/C#)"f4|"(D6)"[c2e2]"(Ebmb5)"[e2e2]cBA2|"E7"[e2e2][c2e2]"(F#dim7)"[e2e2][c2e2]|1"(G#dim7)"BABc"A(6)"A4:|2"(G#dim7)"BABc"A(6)"A3F|!
|:"A(6)"E2AB "(C#m7b5)"cBA2|"D7"F2AB "(D#m7b5)"cBA2|"E7"G2B2e4|"(F#dim7)"efed "(G#dim7)"cBA2|!
"A"E2AB "(C#m7b5)"cBA2|"D7"F2AB "(D#m7b5)"cBA2|"E7"[e2e2][c2e2] "(F#dim7)"[e2e2][c2e2]|"(G#dim7)"BABc "A(6)"A4:|
